icons/24x24_copy_outline.svg

<svg xmlns="http://www.w3.org/2000/svg" width="24" height="24" viewBox="0 0 24 24">
  <path fill-rule="evenodd" d="M14,8 L10,8 L10,20 L18,20 L18,12 L14,12 L14,8 Z M10,6 L14.3721013,6 C14.9114482,6 15.4279331,6.21783436 15.8043755,6.60408068 L19.4322742,10.3525067 C19.7962814,10.725994 20,11.2268956 20,11.748426 L20,20 C20,21.1045695 19.1045695,22 18,22 L10,22 C8.8954305,22 8,21.1045695 8,20 L8,8 C8,6.8954305 8.8954305,6 10,6 Z M15,4 L6,4 L6,18 C4.8954305,18 4,17.1045695 4,16 L4,4 C4,2.8954305 4.8954305,2 6,2 L13,2 C14.1045695,2 15,2.8954305 15,4 Z"/>
</svg>

<svg width="24" height="24" fill="none" xmlns="http://www.w3.org/2000/svg"><path fill-rule="evenodd" clip-rule="evenodd" d="M14 8h-4v12h8v-8h-4V8Zm-4-2h4.372a2 2 0 0 1 1.432.604l3.628 3.748A2 2 0 0 1 20 11.748V20a2 2 0 0 1-2 2h-8a2 2 0 0 1-2-2V8a2 2 0 0 1 2-2Zm5-2H6v14a2 2 0 0 1-2-2V4a2 2 0 0 1 2-2h7a2 2 0 0 1 2 2Z" fill="#000"/></svg>
